X: 729
T: Chanchu hanjian
%%abc-version 2.0
%%abcx-abcm2ps-target-version 5.9.1 (29 Sep 2008)
%%abc-creator hum2abc beta
%%abcx-conversion-date 2013/10/02 07:52:30
%%abc-edited-by Helmut Schaffrath
%%humdrum-veritas 1453038618
%%humdrum-veritas-data 117955994
%%continueall 1
%%barnumbers 0
L: 1/8
M: 2/4
K: F
c2c2 [I:setbarnb 1]| 
d> f d c | 
B2A c | 
G3A | 
c2B A | 
G> A G3/ D/ | 
F4 | 
c2B A | 
G3A | 
F2E D | 
C3D | 
F2E D | 
C> D C G, | 
C4 |]  



